!!!COM: Mozart
!!!OTL: 12 Variations on "Ah Vous dirais-je, Maman" for the Piano
!!!Variation: 5 a2
**function	**harm	**kern	**kern
*	*	*clefF4	*clefG2
*	*	*k[]	*k[]
*M2/4	*M2/4	*M2/4	*M2/4
*C:	*C:	*C:	*C:
=137	=137	=137	=137
2T	2I	8r	4.cc)
.	.	(16CLL	.
.	.	16EJJ	.
.	.	4G)	.
.	.	.	(16ccLL
.	.	.	16eeJJ
=138	=138	=138	=138
2T	2I	8r	4.gg)
.	.	(16cLL	.
.	.	16eJJ	.
.	.	4g)	.
.	.	.	(16ggLL
.	.	.	16eeJJ
=139	=139	=139	=139
2T	2IV	8r	4.aa)
.	.	(16fLL	.
.	.	16aJJ	.
.	.	4c)	.
.	.	.	(16aaLL
.	.	.	16cccJJ
=140	=140	=140	=140
2T	2I	8r	4.gg)
.	.	(16eLL	.
.	.	16gJJ	.
.	.	4c)	.
.	.	.	(16eeLL
.	.	.	16ggJJ)
=141	=141	=141	=141
2T	2viio	8d	8r
.	.	8r	(16ggLL
.	.	.	16ff#JJ)
.	.	8B	8r
.	.	8r	(16ddLL
.	.	.	16ffJJ)
=142	=142	=142	=142
4T	4I	8c	8r
.	.	8r	(16ffLL
.	.	.	16eeJJ)
4T	4Ib	8E	8r
.	.	8r	(16ggLL
.	.	.	16eeJJ)
=143	=143	=143	=143
4P	4iib	8F	8r
.	.	8r	(16cc#LL
.	.	.	16ddJJ)
4D	4V7	8G	8r
.	.	8r	(16ffLL
.	.	.	16ddJJ)
=144	=144	=144	=144
2T	2I	8c	8r
.	.	8r	(16bLL
.	.	.	16ccJJ)
.	.	8C	4r
.	.	8r	.
*-	*-	*-	*-
